dist/img/icon/bridge.svg

<svg width="304" height="150" viewBox="0 0 304 150" fill="none" xmlns="http://www.w3.org/2000/svg">
<g clip-path="url(#clip0_67_12856)">
<path d="M292.06 69.42C256.65 69.42 227.85 40.62 227.85 5.20996H228.78C228.78 40.1 257.17 68.49 292.06 68.49C295.96 68.49 299.86 68.13 303.66 67.43L303.83 68.34C299.98 69.06 296.01 69.42 292.06 69.42Z" fill="#3271B2"/>
<path d="M5.66004 69.4198C3.45004 69.4198 1.22004 69.3098 -0.959961 69.0798L-0.869961 68.1598C1.29004 68.3798 3.48004 68.4898 5.66004 68.4898C22.59 68.4898 38.49 61.9998 50.4 50.2198C62.32 38.4498 68.89 22.7198 68.93 5.90977V5.74977C68.97 5.32977 69.24 5.25977 69.4 5.25977L69.86 5.74977V5.90977C69.86 6.33977 69.86 6.65977 69.85 6.88977C69.85 6.94977 69.85 7.01977 69.85 7.07977C69.51 23.6898 62.87 39.2098 51.06 50.8798C38.96 62.8398 22.84 69.4198 5.66004 69.4198Z" fill="#3271B2"/>
<path d="M149.21 69.4201C112.44 69.4201 80.94 41.2401 77.51 5.25014L78.43 5.17014C81.82 40.6701 112.92 68.4901 149.21 68.4901C166.76 68.4901 183.55 61.9701 196.48 50.1401C209.34 38.3901 217.32 22.4001 218.96 5.14014L219.89 5.22014C218.23 22.7201 210.14 38.9201 197.11 50.8301C184 62.8201 166.99 69.4201 149.21 69.4201Z" fill="#3271B2"/>
<path d="M3.80525 68.9609H2.875V87.8879H3.80525V68.9609Z" fill="#3271B2"/>
<path d="M11.0826 68.9609H10.1523V87.8879H11.0826V68.9609Z" fill="#3271B2"/>
<path d="M18.358 67.8047H17.4277V87.887H18.358V67.8047Z" fill="#3271B2"/>
<path d="M25.6353 65.9697H24.7051V87.8874H25.6353V65.9697Z" fill="#3271B2"/>
<path d="M32.9107 63.1709H31.9805V87.8877H32.9107V63.1709Z" fill="#3271B2"/>
<path d="M40.1842 59.2617H39.2539V87.8865H40.1842V59.2617Z" fill="#3271B2"/>
<path d="M47.4615 53.5723H46.5312V87.8874H47.4615V53.5723Z" fill="#3271B2"/>
<path d="M54.7369 46.8203H53.8066V87.8872H54.7369V46.8203Z" fill="#3271B2"/>
<path d="M62.0142 36.3066H61.084V87.8873H62.0142V36.3066Z" fill="#3271B2"/>
<path d="M150.754 68.9609H149.824V87.8879H150.754V68.9609Z" fill="#3271B2"/>
<path d="M158.032 68.4707H157.102V87.8869H158.032V68.4707Z" fill="#3271B2"/>
<path d="M165.309 67.2227H164.379V87.8864H165.309V67.2227Z" fill="#3271B2"/>
<path d="M172.583 65.1592H171.652V87.888H172.583V65.1592Z" fill="#3271B2"/>
<path d="M179.859 62.2725H178.929V87.887H179.859V62.2725Z" fill="#3271B2"/>
<path d="M187.135 58.2051H186.205V87.8857H187.135V58.2051Z" fill="#3271B2"/>
<path d="M194.412 52.9648H193.481V87.8865H194.412V52.9648Z" fill="#3271B2"/>
<path d="M201.688 46.0752H200.758V87.8872H201.688V46.0752Z" fill="#3271B2"/>
<path d="M208.964 36.6582H208.034V87.8872H208.964V36.6582Z" fill="#3271B2"/>
<path d="M146.426 68.9609H145.496V87.8879H146.426V68.9609Z" fill="#3271B2"/>
<path d="M139.151 68.1816H138.221V87.8872H139.151V68.1816Z" fill="#3271B2"/>
<path d="M131.872 66.7119H130.941V87.8873H131.872V66.7119Z" fill="#3271B2"/>
<path d="M124.598 64.4248H123.668V87.8876H124.598V64.4248Z" fill="#3271B2"/>
<path d="M117.321 61.2393H116.391V87.8873H117.321V61.2393Z" fill="#3271B2"/>
<path d="M110.045 57.0186H109.115V87.8871H110.045V57.0186Z" fill="#3271B2"/>
<path d="M102.768 51.5312H101.838V87.8874H102.768V51.5312Z" fill="#3271B2"/>
<path d="M95.4928 44.3398H94.5625V87.8877H95.4928V44.3398Z" fill="#3271B2"/>
<path d="M88.2154 34.4512H87.2852V87.8877H88.2154V34.4512Z" fill="#3271B2"/>
<path d="M295.605 68.9609H294.675V87.8879H295.605V68.9609Z" fill="#3271B2"/>
<path d="M288.329 68.8232H287.398V87.8869H288.329V68.8232Z" fill="#3271B2"/>
<path d="M281.052 68.2549H280.122V87.8879H281.052V68.2549Z" fill="#3271B2"/>
<path d="M273.776 66.459H272.846V87.8873H273.776V66.459Z" fill="#3271B2"/>
<path d="M266.5 63.7227H265.569V87.8878H266.5V63.7227Z" fill="#3271B2"/>
<path d="M259.225 59.9023H258.295V87.8871H259.225V59.9023Z" fill="#3271B2"/>
<path d="M251.947 54.3389H251.017V87.8875H251.947V54.3389Z" fill="#3271B2"/>
<path d="M244.67 47.3242H243.74V87.8869H244.67V47.3242Z" fill="#3271B2"/>
<path d="M237.394 37.0889H236.464V87.8872H237.394V37.0889Z" fill="#3271B2"/>
<path d="M77.1533 4.44727H69.6621V149.831H77.1533V4.44727Z" fill="#00AEEF"/>
<path d="M228.044 4.44727H220.553V149.831H228.044V4.44727Z" fill="#00AEEF"/>
<path d="M-0.949951 87.8799H303.75V95.2799H-0.909951L-0.949951 87.8799Z" fill="#00AEEF"/>
<path d="M235.507 -0.426758H212.56V5.3101H235.507V-0.426758Z" fill="#00AEEF"/>
<path d="M85.1662 -0.426758H62.2188V5.3101H85.1662V-0.426758Z" fill="#00AEEF"/>
</g>
<defs>
<clipPath id="clip0_67_12856">
<rect width="304" height="150" fill="white"/>
</clipPath>
</defs>
</svg>

<svg width="304" height="150" viewBox="0 0 304 150" fill="none" xmlns="http://www.w3.org/2000/svg"><g clip-path="url(#clip0_67_12856)"><path d="M292.06 69.42c-35.41 0-64.21-28.8-64.21-64.21h.93c0 34.89 28.39 63.28 63.28 63.28 3.9 0 7.8-.36 11.6-1.06l.17.91c-3.85.72-7.82 1.08-11.77 1.08zm-286.4 0c-2.21 0-4.44-.11-6.62-.34l.09-.92c2.16.22 4.35.33 6.53.33 16.93 0 32.83-6.49 44.74-18.27 11.92-11.77 18.49-27.5 18.53-44.31v-.16c.04-.42.31-.49.47-.49l.46.49v.16c0 .43 0 .75-.01.98v.19c-.34 16.61-6.98 32.13-18.79 43.8-12.1 11.96-28.22 18.54-45.4 18.54zm143.55 0c-36.77 0-68.27-28.18-71.7-64.17l.92-.08c3.39 35.5 34.49 63.32 70.78 63.32 17.55 0 34.34-6.52 47.27-18.35 12.86-11.75 20.84-27.74 22.48-45l.93.08c-1.66 17.5-9.75 33.7-22.78 45.61-13.11 11.99-30.12 18.59-47.9 18.59z" fill="#3271B2"/><path d="M3.805 68.96h-.93v18.928h.93V68.96zm7.278 0h-.93v18.928h.93V68.96zm7.275-1.155h-.93v20.082h.93V67.805zm7.277-1.835h-.93v21.917h.93V65.97zm7.275-2.8h-.93v24.718h.93V63.17zm7.274-3.908h-.93v28.624h.93V59.263zm7.278-5.69h-.93v34.315h.93V53.572zm7.275-6.752h-.93v41.067h.93V46.82zm7.277-10.513h-.93v51.58h.93v-51.58zm88.74 32.653h-.93v18.928h.93V68.96zm7.278-.49h-.93v19.417h.93V68.47zm7.277-1.247h-.93v20.663h.93V67.223zm7.274-2.063h-.931v22.728h.931V65.159zm7.276-2.887h-.93v25.614h.93V62.273zm7.276-4.068h-.93v29.68h.93v-29.68zm7.277-5.24h-.931v34.921h.931V52.965zm7.276-6.89h-.93v41.812h.93V46.075zm7.276-9.417h-.93v51.23h.93v-51.23zM146.426 68.96h-.93v18.928h.93V68.96zm-7.275-.778h-.93v19.705h.93V68.182zm-7.279-1.47h-.931v21.175h.931V66.712zm-7.274-2.287h-.93v23.463h.93V64.425zm-7.277-3.185h-.93v26.647h.93V61.24zm-7.276-4.221h-.93v30.868h.93V57.02zm-7.277-5.488h-.93v36.356h.93V51.531zm-7.275-7.191h-.93v43.548h.93V44.34zm-7.278-9.889h-.93v53.437h.93V34.45zm207.39 34.509h-.93v18.928h.93V68.96zm-7.276-.137h-.931v19.064h.931V68.823zm-7.277-.568h-.93v19.633h.93V68.255zm-7.276-1.796h-.93v21.428h.93V66.46zm-7.276-2.736h-.931v24.165h.931V63.723zm-7.275-3.821h-.93v27.985h.93V59.902zm-7.278-5.563h-.93v33.549h.93v-33.55zm-7.277-7.015h-.93v40.563h.93V47.324zm-7.276-10.235h-.93v50.798h.93V37.09z" fill="#3271B2"/><path d="M77.153 4.447h-7.49v145.384h7.49V4.447zm150.891 0h-7.491v145.384h7.491V4.447z" fill="#00AEEF"/><path d="M-.95 87.88h304.7v7.4H-.91l-.04-7.4zM235.507-.427H212.56V5.31h22.947V-.427zm-150.341 0H62.22V5.31h22.947V-.427z" fill="#00AEEF"/></g><defs><clipPath id="clip0_67_12856"><rect width="304" height="150" fill="#fff"/></clipPath></defs></svg>
